packages/dnb-ui-lib/assets/icons/house_2.svg

<svg width="16" height="16" viewBox="0 0 16 16" fill="none" xmlns="http://www.w3.org/2000/svg">
<path d="M2.86667 12.75V14.0667C2.86667 14.575 3.29164 15 3.8 15H5.6C6.15229 15 6.6 14.5523 6.6 14V11.7333C6.6 11.225 7.02498 10.8 7.53333 10.8H8.46667C8.97502 10.8 9.4 11.225 9.4 11.7333V14C9.4 14.5523 9.84772 15 10.4 15H12.2C12.7084 15 13.1333 14.575 13.1333 14.0667V12.75M1 10.8L7.33982 4.46018C7.4265 4.37345 7.52941 4.30464 7.64269 4.2577C7.75597 4.21076 7.87738 4.1866 8 4.1866C8.12262 4.1866 8.24403 4.21076 8.35731 4.2577C8.47059 4.30464 8.5735 4.37345 8.66018 4.46018L10.8043 6.60425M15 10.8L13.1333 8.93333M11.187 1L10.9338 1.33787C10.8321 1.47096 10.7857 1.63815 10.8043 1.8046C10.8228 1.97105 10.9049 2.12393 11.0333 2.23138C11.1618 2.33882 11.2439 2.4917 11.2624 2.65816C11.281 2.82461 11.2346 2.9918 11.1329 3.12489L10.8796 3.46276M13.5204 1L13.2671 1.33787C13.1654 1.47096 13.119 1.63815 13.1376 1.8046C13.1561 1.97105 13.2382 2.12393 13.3667 2.23138C13.4951 2.33882 13.5772 2.4917 13.5957 2.65816C13.6143 2.82461 13.5679 2.9918 13.4662 3.12489L13.213 3.46276M10.8043 6.60425L10.8 5.66667H13.1333V8.93333M10.8043 6.60425L13.1333 8.93333" stroke="black" stroke-width="1.5" stroke-linecap="round" stroke-linejoin="round"/>
</svg>

<svg width="16" height="16" viewBox="0 0 16 16" fill="none" xmlns="http://www.w3.org/2000/svg"><path d="M2.867 12.75v1.317c0 .508.425.933.933.933h1.8a1 1 0 001-1v-2.267c0-.508.425-.933.933-.933h.934c.508 0 .933.425.933.933V14a1 1 0 001 1h1.8a.943.943 0 00.933-.933V12.75M1 10.8l6.34-6.34a.933.933 0 011.32 0l2.144 2.144M15 10.8l-1.867-1.867M11.187 1l-.253.338a.65.65 0 00.1.893.65.65 0 01.099.894l-.253.338M13.52 1l-.253.338a.65.65 0 00.1.893.65.65 0 01.1.894l-.254.338m-2.409 3.141l-.004-.937h2.333v3.266m-2.329-2.329l2.33 2.33" stroke="#000" stroke-width="1.5" stroke-linecap="round" stroke-linejoin="round"/></svg>
